!!!!SEGMENT: pl-sa--275-a-vii-35--002_m-m--ave-regina-caelorum-ave-regina-caelorum.krn
!!!cenid: 17xx:1271
!!!COM: M.M.
!!!COM-rismID:
!!!CDT:
!!!CNT:
!!!OPR: Ave Regina caelorum
!!!OTL: Ave Regina caelorum
!!!OMV: 002
!!!PDT: 1714
!!!AGN: Sacred
!!!SMS-siglum: PL-SA
!!!SMS-shelfmark: 275/A VII 35
!!!SMS-shelfwork: 001-002 M
!!!SMS-variant:
!!!SMS-altvar:
!!!NIFC-rismSourceID: 1001069579
!!!NIFC-islandoraID:
!!!URL-pdf-islandora:
!!!URL-scan: https://bc.bdsandomierz.pl/dlibra/publication/1758/edition/1726/content @EN{Scan on Cyfrowa Biblioteka Diecezjalna w Sandomierzu} @PL{Skany w portalu Cyfrowa Biblioteka Diecezjalna w Sandomierzu}
!!!ONB-nifc: UWAGA: części Ave Regina caelorum: 1. Symphonia, 2. Ave Regina caelorum
!!!AIN: 1 organ 2 soprn 2 tromp 1 violb 2 violn
!!!key: B-
**kern	**fba	**kern	**kern	**kern	**kern	**text	**kern	**text	**kern	**kern
*part8	*	*part7	*part6	*part5	*part4	*part4	*part3	*part3	*part2	*part1
*staff8	*	*staff7	*staff6	*staff5	*staff4	*staff4	*staff3	*staff3	*staff2	*staff1
*I"[bass, figured]	*	*I"Viola Dygamba	*I"Violino Secundo	*I"Violino 1mo	*I"Canto 2do.	*	*I"Canto 1mo.	*	*I"Clarino 2do .b.	*I"Clarino 1mo .b
*I'[b.fig]	*	*I'vla da gamba	*I'vl II	*I'vl I	*I'C II	*	*I'C I	*	*I'clno II	*I'clno I
*ICklav	*	*ICstr	*ICstr	*ICstr	*ICvox	*	*ICvox	*	*ICbras	*ICbras
*Iorgan	*	*Iviolb	*Ivioln	*Ivioln	*Isoprn	*	*Isoprn	*	*Itromp	*Itromp
*clefF4	*	*clefF4	*clefG2	*clefG2	*clefC1	*	*clefC1	*	*clefG2	*clefG2
*	*	*	*	*	*	*	*	*	*ITrd1c2	*ITrd1c2
*k[e-b-]	*	*k[e-b-]	*k[e-b-]	*k[e-b-]	*k[e-b-]	*	*k[e-b-]	*	*k[b-e-]	*k[b-e-]
*B-:	*	*B-:	*B-:	*B-:	*B-:	*	*B-:	*	*B-:	*B-:
*B-	*	*B-	*B-	*B-	*B-	*	*B-	*	*B-	*B-
*M2/2	*	*M2/2	*M2/2	*M2/2	*M2/2	*	*M2/2	*	*M2/2	*M2/2
*met(c|)	*	*met(c|)	*met(c|)	*met(c|)	*met(c|)	*	*met(c|)	*	*met(c|)	*met(c|)
=1	=1	=1	=1	=1	=1	=1	=1	=1	=1	=1
!!LO:TX:t=P:problem:all\right	!	!	!	!	!	!	!	!	!
!	!	!	!	!	!LO:TX:t=P:problem=brak kreski taktowej	!	!	!	!	!
!LO:TX:t=P:problem=kolejność znaków E- BB-	!	!	!	!LO:TX:t=P:problem=kolejność znaków ee- b-	!LO:TX:t=P:problem=kolejność znaków ee- b-	!	!LO:TX:t=P:problem=kolejność znaków ee- b-	!	!LO:TX:b:t=Ave Regina	!LO:TX:b:t=Ave Regina
!LO:TX:b:t=Ave	!	!LO:TX:t=P:problem=kolejność znaków E- BB-	!LO:TX:t=P:problem=kolejność znaków ee- b-	!LO:TX:a:t=5	!LO:TX:t=P:problem=brak oznaczenia tempa	!	!LO:TX:t=P:problem=brak oznaczenia tempa	!	!LO:TX:t=P:problem=brak oznaczenia tempa	!LO:TX:t=P:problem=brak oznaczenia tempa
8B-\L	.	16B-\LL	1r	1r	1r	.	2b-\	A-	1r	1r
.	.	16c\	.	.	.	.	.	.	.	.
8A\	.	16B-\	.	.	.	.	.	.	.	.
.	.	16A\JJ	.	.	.	.	.	.	.	.
8G\	.	16G\LL	.	.	.	.	.	.	.	.
.	.	16A\	.	.	.	.	.	.	.	.
8F\J	.	16G\	.	.	.	.	.	.	.	.
.	.	16F\JJ	.	.	.	.	.	.	.	.
!	!	!LO:LB:g=original	!	!	!	!	!	!	!	!
8E-\L	.	16E-\LL	.	.	.	.	2b-\	-ve	.	.
.	.	16F\	.	.	.	.	.	.	.	.
8D\	.	16E-\	.	.	.	.	.	.	.	.
.	.	16D\JJ	.	.	.	.	.	.	.	.
8C\	-	16C/LL	.	.	.	.	.	.	.	.
.	.	16D/	.	.	.	.	.	.	.	.
8BB-\J	.	16E-/	.	.	.	.	.	.	.	.
.	.	16C/JJ	.	.	.	.	.	.	.	.
=2	=2	=2	=2	=2	=2	=2	=2	=2	=2	=2
!LO:TX:t=P:problem=mixed beam	!	!LO:TX:t=P:problem=mixed beam	!	!	!	!	!LO:TX:t=P:problem=dopisane chorągiewki [8,16] w tt. 2, 4, 11, 13 [przyjęto belkowanie]	!	!	!
8F\L	.	8F\L	1r	1r	8a\	Re-	8cc\L	Re-	1r	1r
8FF\	.	8FF\	.	.	8a\	-gi-	8cc\J	-gi-	.	.
8D\	-6	8D\	.	.	8b-\	-na	(8dd\L	-na	.	.
!	!	!	!	!	!LO:TX:t=P:problem=niejednoznaczny zapis [prawdopodobnie łuk]	!	!	!	!	!
!	!	!	!	!	!LO:N:vis=4	!	!	!	!	!
8E-\J	6 5	8E-\J	.	.	(8cc\	cae-	8ee-\J)	cae-	.	.
!LO:TX:t=P:problem=mixed beam	!	!LO:TX:t=P:problem=mixed beam	!	!	!	!	!	!	!	!
8F\L	.	8F\L	.	.	4a\)	-lo-	4cc\	-lo-	.	.
8FF\J	.	8FF\J	.	.	.	.	.	.	.	.
!	!	!	!	!	!LO:TX:t=P:problem=brak kreski taktowej	!	!	!	!	!
4BB-/	.	4BB-/	.	.	4f/	-rum	4b-\	-rum	.	.
=3	=3	=3	=3	=3	=3	=3	=3	=3	=3	=3
!	!	!	!	!	!LO:TX:t=P:problem=brak kreski taktowej	!	!	!	!	!
8B-\L	.	16B-\LL	1r	1r	1r	.	2b-\	a-	1r	1r
.	.	16c\	.	.	.	.	.	.	.	.
8A\	.	16B-\	.	.	.	.	.	.	.	.
.	.	16A\JJ	.	.	.	.	.	.	.	.
8G\	.	16G\LL	.	.	.	.	.	.	.	.
.	.	16A\	.	.	.	.	.	.	.	.
8F\J	.	16G\	.	.	.	.	.	.	.	.
.	.	16F\JJ	.	.	.	.	.	.	.	.
!LO:LB:g=original	!	!	!	!	!	!	!	!	!	!
8E-/L	.	16E-\LL	.	.	.	.	2b-\	-ve	.	.
.	.	16F\	.	.	.	.	.	.	.	.
8D/	.	16E-\	.	.	.	.	.	.	.	.
.	.	16D\JJ	.	.	.	.	.	.	.	.
8C/	-	16C/LL	.	.	.	.	.	.	.	.
.	.	16D/	.	.	.	.	.	.	.	.
8BB-/J	.	16E-/	.	.	.	.	.	.	.	.
.	.	16C/JJ	.	.	.	.	.	.	.	.
=4	=4	=4	=4	=4	=4	=4	=4	=4	=4	=4
!LO:TX:t=P:problem=mixed beam	!	!LO:TX:t=P:problem=mixed beam	!	!	!	!	!	!	!	!
8F\L	.	8F\L	1r	1r	8a\	Do-	8cc\L	D(o-	1r	1r
8FF\	.	8FF\J	.	.	16a\LL	-mi-	16cc\L	-mi)-	.	.
.	.	.	.	.	16a\JJ	-na	16cc\JJ	-na	.	.
!	!	!LO:LB:g=original	!	!	!	!	!	!	!	!
8D\	-6	8D\L	.	.	8b-\	An-	(8dd\L	An-	.	.
!	!	!	!	!	!LO:TX:t=P:problem=niejednoznaczny zapis [prawdopodobnie łuk]	!	!	!	!	!
8E-\J	6 5	8E-\J	.	.	(8cc\	-ge-	8ee-\J)	-ge-	.	.
!LO:TX:t=P:problem=mixed beam	!	!LO:TX:t=P:problem=mixed beam	!	!	!	!	!	!	!	!
8F\L	.	8F\L	.	.	2f/)	-lo-	2cc\	-lo-	.	.
8FF\	.	8FF\	.	.	.	.	.	.	.	.
8AA\	6	8AA\	.	.	.	.	.	.	.	.
8FF\J	.	8FF\J	.	.	.	.	.	.	.	.
=5	=5	=5	=5	=5	=5	=5	=5	=5	=5	=5
!	!	!	!	!	!LO:TX:t=P:problem=brak kreski taktowej	!	!LO:TX:t=P:problem=brak kreski taktowej	!	!	!
8B-\L	.	8B-\L	1r	1r	1b-	-rum	1b-	-rum	1r	1r
8A\	.	8A\	.	.	.	.	.	.	.	.
8G\	.	8G\	.	.	.	.	.	.	.	.
8F\J	.	8F\J	.	.	.	.	.	.	.	.
!	!	!LO:TX:t=P:problem=mixed beam	!	!	!	!	!	!	!	!
8D\L	-6	8D\L	.	.	.	.	.	.	.	.
8E-\	6 5	8E-\	.	.	.	.	.	.	.	.
8F\	4:3	8F\	.	.	.	.	.	.	.	.
!LO:TX:t=P:problem=kreska taktowa podwójna	!	!	!	!	!	!	!	!	!	!
8BB-\J	.	8BB-\Jyy	.	.	.	.	.	.	.	.
=6	=6	=6	=6	=6	=6	=6	=6	=6	=6	=6
!	!	!	!	!LO:TX:b:t=Sÿmphonia	!	!	!	!	!	!
!	!	!	!LO:TX:b:t=Sÿmphonia	!	!	!	!	!	!	!
!LO:TX:b:t=symphonia	!	!	!LO:TX:a:B:t=adagio	!LO:TX:a:B:t=adagio	!	!	!	!	!	!
8B-\L	.	8B-\L	8d/L	8b-\L	1r	.	1r	.	8d/L	8b-\L
8A\	.	8A\	8d/	8b-\	.	.	.	.	8d/	8b-\
8G\	.	8G\	8d/	8b-\	.	.	.	.	8d/	8b-\
8F\J	.	8F\J	8d/J	8b-\J	.	.	.	.	8d/J	8b-\J
8E-\L	.	8E-\L	8d/L	8b-/L	.	.	.	.	8d/L	8b-\L
8D\	.	8D\	8d/	8b-/	.	.	.	.	8d/	8b-\
8C\	-	8C\	8d/	8b-/	.	.	.	.	8d/	8b-\
!	!	!	!	!	!	!	!	!	!LO:TX:t=P:problem=brak kreski taktowej	!LO:TX:t=P:problem=brak kreski taktowej
8BB-\J	.	8BB-\J	8d/J	8b-/J	.	.	.	.	8d/J	8b-\J
!LO:LB:g=original	!	!	!	!	!	!	!	!	!	!
=7	=7	=7	=7	=7	=7	=7	=7	=7	=7	=7
!LO:TX:t=P:problem=mixed beam	!	!LO:TX:t=P:problem=mixed beam	!	!	!	!	!	!	!	!
8F\L	.	8F\L	8f/L	8cc\L	1r	.	1r	.	8f/L	8cc\L
8FF\	.	8FF\	8f/	8cc\	.	.	.	.	8f/	8cc\
8D\	-6	8D\	8b-/	8dd\	.	.	.	.	8b-/	8dd\
8E-\J	6 5	8E-\J	8cc/J	8ee-\J	.	.	.	.	8cc/J	8ee-\J
!LO:TX:t=P:problem=mixed beam	!	!LO:TX:t=P:problem=mixed beam	!	!	!	!	!	!	!	!
8F\L	.	8F\L	4f/	4cc\	.	.	.	.	4f/	4cc\
8FF\J	.	8FF\J	.	.	.	.	.	.	.	.
4BB-/	.	4BB-/	4d/	4b-\	.	.	.	.	4d/	4b-\
!	!	!LO:LB:g=original	!	!	!	!	!	!	!	!
=8	=8	=8	=8	=8	=8	=8	=8	=8	=8	=8
8B-\L	.	16B-\LL	8d/L	8b-\L	1r	.	1r	.	8d/L	8b-\L
.	.	16c\	.	.	.	.	.	.	.	.
8A\	.	16B-\	8d/	8b-\	.	.	.	.	8d/	8b-\
.	.	16A\JJ	.	.	.	.	.	.	.	.
8G\	.	16G\LL	8d/	8b-\	.	.	.	.	8d/	8b-\
.	.	16A\	.	.	.	.	.	.	.	.
8F\J	.	16G\	8d/J	8b-\J	.	.	.	.	8d/J	8b-\J
.	.	16F\JJ	.	.	.	.	.	.	.	.
8E-/L	.	16E-\LL	8d/L	8b-\L	.	.	.	.	8d/L	8b-\L
.	.	16F\	.	.	.	.	.	.	.	.
8D/	.	16E-\	8d/	8b-\	.	.	.	.	8d/	8b-\
.	.	16D\JJ	.	.	.	.	.	.	.	.
8C/	-	16C/LL	8d/	8b-\	.	.	.	.	8d/	8b-\
.	.	16D/	.	.	.	.	.	.	.	.
!	!	!	!	!	!	!	!	!	!LO:TX:t=P:problem=brak kreski taktowej	!
8BB-/J	.	16E-/	8d/J	8b-\J	.	.	.	.	8d/J	8b-\J
.	.	16C/JJ	.	.	.	.	.	.	.	.
=9	=9	=9	=9	=9	=9	=9	=9	=9	=9	=9
!LO:TX:t=P:problem=mixed beam	!	!LO:TX:t=P:problem=mixed beam	!	!	!	!	!	!	!	!
8F\L	.	8F\L	8f/L	8cc\L	1r	.	1r	.	8f/L	8cc\L
8FF\	.	8FF\	8f/	8cc\	.	.	.	.	8f/J	8cc\
8D\	-6	8D\	8b-/	8dd\	.	.	.	.	8b-\L	8dd\
8E-\J	6 5	8E-\J	8cc/J	8ee-\J	.	.	.	.	8cc\J	8ee-\J
!LO:TX:t=P:problem=mixed beam	!	!LO:TX:t=P:problem=mixed beam	!	!	!	!	!	!	!	!LO:TX:t=P:problem=brak kreski taktowej
8F\L	.	8F\L	2f/	2cc\	.	.	.	.	2f/	2cc\
8FF\	.	8FF\	.	.	.	.	.	.	.	.
8AA\	6	8AA\	.	.	.	.	.	.	.	.
8FF\J	.	8FF\J	.	.	.	.	.	.	.	.
=10	=10	=10	=10	=10	=10	=10	=10	=10	=10	=10
8B-\L	.	8B-\L	8d/L	8b-\L	1r	.	1r	.	8d/L	8b-\L
8A\	.	8A\	8d/	8b-\	.	.	.	.	8d/	8b-\
8G\	.	8G\	8d/	8b-\	.	.	.	.	8d/	8b-\
8F\J	.	8F\J	8d/J	8b-\J	.	.	.	.	8d/J	8b-\J
!	!	!LO:TX:t=P:problem=mixed beam	!	!	!	!	!	!	!	!LO:TX:t=P:problem=kreska taktowa pojedyncza
8D\L	-6	8D\L	2d/	2b-\	.	.	.	.	2d/	2b-\
8E-\	6 5	8E-\	.	.	.	.	.	.	.	.
8F\	.	8F\	.	.	.	.	.	.	.	.
8BB-\J	.	8BB-\J	.	.	.	.	.	.	.	.
!LO:LB:g=original	!	!	!LO:LB:g=original	!LO:LB:g=original	!LO:LB:g=original	!	!LO:LB:g=original	!	!	!
=11||	=11||	=11||	=11||	=11||	=11||	=11||	=11||	=11||	=11||	=11||
*M2/2	*	*M2/2	*M2/2	*M2/2	*M2/2	*	*M2/2	*	*M2/2	*M2/2
*met(c|)	*	*met(c|)	*met(c|)	*met(c|)	*met(c|)	*	*met(c|)	*	*met(c|)	*met(c|)
!LO:TX:b:t=Salve radix	!	!	!	!	!LO:TX:a:B:t=allegro	!	!LO:TX:a:B:t=allegro	!	!	!
4BB-/	.	8BB-/L	1r	1r	8b-\	Sal-	8dd\L	Sal-	1r	1r
.	.	8C/	.	.	8a\	-ve	8cc\J	-ve	.	.
4r	.	8D/	.	.	8b-\	ra-	8dd\L	ra-	.	.
.	.	8E-/J	.	.	8g\	-dix	8b-\J	-dix	.	.
!	!	!LO:LB:g=original	!	!	!	!	!	!	!	!
!	!	!LO:TX:t=P:problem=mixed beam	!	!	!	!	!	!	!	!
4F\	.	8F\L	.	.	8a\	Sal-	8cc\L	Sal-	.	.
.	.	8FF\	.	.	8g\	-ve	8b-\J	-ve	.	.
!	!	!	!	!	!	!	!LO:TX:t=P:problem=mixed beam	!	!	!
4r	.	8AA\	.	.	8a\	por-	8cc\L	por-	.	.
!	!	!	!	!	!LO:TX:t=P:problem=brak kreski taktowej	!	!	!	!	!
.	.	8FF\J	.	.	8a\	-ta	8f\J	-ta	.	.
=12	=12	=12	=12	=12	=12	=12	=12	=12	=12	=12
!	!	!	!	!	!LO:TX:t=P:problem=brak kreski taktowej	!	!	!	!	!
16B-\LL	.	16B-\LL	1r	1r	1r	.	1r	.	1r	1r
16c\	.	16c\	.	.	.	.	.	.	.	.
16B-\	.	16B-\	.	.	.	.	.	.	.	.
16A\JJ	.	16A\JJ	.	.	.	.	.	.	.	.
16G\LL	.	16G\LL	.	.	.	.	.	.	.	.
16F\	.	16F\	.	.	.	.	.	.	.	.
16G\	.	16G\	.	.	.	.	.	.	.	.
16A\JJ	.	16A\JJ	.	.	.	.	.	.	.	.
16B-\LL	.	16B-\LL	.	.	.	.	.	.	.	.
16A\	.	16A\	.	.	.	.	.	.	.	.
16B-\	.	16B-\	.	.	.	.	.	.	.	.
16A\JJ	.	16A\J	.	.	.	.	.	.	.	.
!LO:TX:t=P:problem=mixed beam	!	!	!	!	!	!	!	!	!	!
8B-\L	.	8B-\	.	.	.	.	.	.	.	.
8BB-\J	.	8BB-\J	.	.	.	.	.	.	.	.
=13	=13	=13	=13	=13	=13	=13	=13	=13	=13	=13
*	*	*	*	*	*	*ij	*	*ij	*	*
4BB-/	.	8BB-/L	1r	1r	8b-\	Sal-	8dd\L	Sal-	1r	1r
.	.	8C/	.	.	8a\	-ve	8cc\J	-ve	.	.
4r	.	8D/	.	.	8b-\	ra-	8dd\L	ra-	.	.
.	.	8E-/J	.	.	8g\	-dix	8b-\J	-dix	.	.
!	!	!LO:TX:t=P:problem=mixed beam	!	!	!	!	!	!	!	!
4FF/	.	8F\L	.	.	8a\	Sal-	8cc\L	Sal-	.	.
.	.	8FF\	.	.	8g\	-ve	8b-\J	-ve	.	.
!	!	!	!	!	!	!	!LO:TX:t=P:problem=mixed beam	!	!	!
4r	.	8AA\	.	.	8a\	por-	8cc\L	por-	.	.
!	!	!	!	!	!LO:TX:t=P:problem=brak kreski taktowej	!	!	!	!	!
.	.	8FF\J	.	.	8a\	-ta	8f\J	-ta	.	.
*	*	*	*	*	*	*Xij	*	*Xij	*	*
=14	=14	=14	=14	=14	=14	=14	=14	=14	=14	=14
16B-\LL	.	16B-\LL	1r	1r	1r	.	1r	.	1r	1r
16c\	.	16c\	.	.	.	.	.	.	.	.
16B-\	.	16B-\	.	.	.	.	.	.	.	.
16A\JJ	6	16A\JJ	.	.	.	.	.	.	.	.
16G\LL	.	16G\LL	.	.	.	.	.	.	.	.
16F\	.	16F\	.	.	.	.	.	.	.	.
16G\	.	16G\	.	.	.	.	.	.	.	.
!	!	!LO:TX:b:t=Vertat Citiſsime	!	!	!	!	!	!	!	!
16A\JJ	6	16A\JJ	.	.	.	.	.	.	.	.
!LO:LB:g=original	!	!LO:LB:g=original	!	!	!	!	!	!	!	!
16B-\LL	.	16B-\LL	.	.	.	.	.	.	.	.
16A\	6	16A\	.	.	.	.	.	.	.	.
16B-\	.	16B-\	.	.	.	.	.	.	.	.
16A\JJ	6	16A\JJ	.	.	.	.	.	.	.	.
!LO:TX:t=P:problem=mixed beam	!	!LO:TX:t=P:problem=mixed beam	!	!	!	!	!	!	!	!
8B-\L	.	8B-\L	.	.	.	.	.	.	.	.
8BB-\J	.	8BB-\J	.	.	.	.	.	.	.	.
=15	=15	=15	=15	=15	=15	=15	=15	=15	=15	=15
!	!	!	!	!	!LO:TX:t=P:problem=brak kreski taktowej	!	!	!	!	!
4BB-/	.	4BB-/	1r	1r	1r	.	8f/	ex	1r	1r
.	.	.	.	.	.	.	8f/	qua	.	.
8E-\L	6 5	8E-\L	.	.	.	.	8g/	mun-	.	.
8F\J	.	8F\J	.	.	.	.	8a/	-do	.	.
8D\L	-6	8D\L	.	.	.	.	8b-\	lux	.	.
8E-\J	6 5	8E-\J	.	.	.	.	8cc\	est	.	.
!LO:TX:t=P:problem=mixed beam	!	!LO:TX:t=P:problem=mixed beam	!	!	!	!	!	!	!	!
8F/L	4:3	8F/L	.	.	.	.	8a\	or-	.	.
8FF/J	.	8FF/J	.	.	.	.	8f/	-ta	.	.
!	!	!	!	!	!	!	!LO:LB:g=original	!	!	!
=16	=16	=16	=16	=16	=16	=16	=16	=16	=16	=16
*	*	*	*	*	*	*	*	*ij	*	*
4GG/	-	16GG/LL	1r	1r	8f/	ex	8b-\	ex	1r	1r
.	.	16AA/	.	.	.	.	.	.	.	.
.	.	16BB-/	.	.	8f/	qua	8b-\	qua	.	.
.	.	16GG/JJ	.	.	.	.	.	.	.	.
4FF/	.	16FF/LL	.	.	8a\	mun-	8cc\	mun-	.	.
.	.	16GG/	.	.	.	.	.	.	.	.
.	.	16AA/	.	.	8b-\	-do	8dd\	-do	.	.
.	.	16FF/JJ	.	.	.	.	.	.	.	.
4C/	-	16C/LL	.	.	8cc\	lux	8ee-\	lux	.	.
.	.	16D/	.	.	.	.	.	.	.	.
.	.	16E-/	.	.	8dd\	est	8ff\	est	.	.
.	.	16C/JJ	.	.	.	.	.	.	.	.
!	!	!	!	!	!LO:LB:g=original	!	!	!	!	!
4BB-/	.	16BB-/LL	.	.	8dd\	or-	8dd\	or-	.	.
.	.	16C/	.	.	.	.	.	.	.	.
.	.	16D/	.	.	8dd\	-ta	8b-\	-ta	.	.
.	.	16BB-/JJ	.	.	.	.	.	.	.	.
*	*	*	*	*	*	*	*	*Xij	*	*
=17	=17	=17	=17	=17	=17	=17	=17	=17	=17	=17
8BB-/L	.	8BB-/L	1r	1r	4.dd\	O	4.ff\	O	1r	1r
8C/	-	8C/	.	.	.	.	.	.	.	.
8D/	-6	8D/	.	.	.	.	.	.	.	.
8BB-/J	.	8BB-/J	.	.	(16ee-\LL	.	16gg\LL	.	.	.
.	.	.	.	.	16dd\JJ)	.	16ff\JJ	.	.	.
8C/L	-	8C/L	.	.	4.cc\	.	4.ee-\	.	.	.
8D/	-6	8D/	.	.	.	.	.	.	.	.
8E-/	.	8E-/	.	.	.	.	.	.	.	.
8C/J	.	8C/J	.	.	(16dd\LL	.	16ff\LL	.	.	.
.	.	.	.	.	16cc\JJ)	.	16ee-\JJ	.	.	.
!	!	!LO:LB:g=original	!	!	!	!	!	!	!	!
=18	=18	=18	=18	=18	=18	=18	=18	=18	=18	=18
8BB-/L	.	8BB-/L	1r	1r	4.b-\	.	4.dd\	.	1r	1r
8C/	-	8C/	.	.	.	.	.	.	.	.
8D/	-6	8D/	.	.	.	.	.	.	.	.
!LO:TX:t=P:problem=kreska taktowa pojedyncza	!	!	!	!	!	!	!	!	!	!
8BB-/J	.	8BB-/J	.	.	16cc\LL	.	16ee-\LL	.	.	.
.	.	.	.	.	16b-\JJ	.	16dd\JJ	.	.	.
!LO:TX:t=P:problem=mixed beam	!	!LO:TX:t=P:problem=mixed beam	!	!	!	!	!	!	!	!
8F/L	.	8F/L	.	.	4a\	or-	4cc\	or-	.	.
8FF/J	.	8FF/J	.	.	.	.	.	.	.	.
4FF/	.	4FF/	.	.	4a\	-ta	4f/	-ta	.	.
!LO:LB:g=original	!	!	!	!	!	!	!	!	!	!
=19	=19	=19	=19	=19	=19	=19	=19	=19	=19	=19
4FF/	.	4FF/	1r	1r	2r	.	8f/	ex	1r	1r
.	.	.	.	.	.	.	8f/	qua	.	.
8D\L	-6	8D\L	.	.	.	.	8b-\	mun-	.	.
8F\J	.	8F\J	.	.	.	.	8cc\	-do	.	.
4B-\	.	4B-\	.	.	8b-\L	lux	8dd\	lux	.	.
.	.	.	.	.	(16a\L	.	(16cc\LL	est	.	.
.	.	.	.	.	16b-\JJ)	.	16dd\JJ)	.	.	.
4C/	-	4C/	.	.	(16cc\LL	est	(16ee-\LL	.	.	.
.	.	.	.	.	16dd\JJ)	.	16ff\JJ)	.	.	.
!	!	!	!	!	!	!	!LO:LB:g=original	!	!	!
.	.	.	.	.	(16cc\LL	.	(16ee-\LL	.	.	.
.	.	.	.	.	16b-\JJ)	.	16dd\JJ)	.	.	.
=20	=20	=20	=20	=20	=20	=20	=20	=20	=20	=20
!	!	!LO:TX:t=P:problem=mixed beam	!	!	!LO:TX:a:t=a	!	!	!	!LO:TX:t=P:problem=brak kreski taktowej	!LO:TX:t=P:problem=brak kreski taktowej
8F\L	.	8F\L	1r	1r	2a\	or-	2cc\	or-	1r	1r
8E-\J	6 5	8E-\	.	.	.	.	.	.	.	.
!LO:TX:t=P:problem=mixed beam	!	!	!	!	!	!	!	!	!	!
8F/L	4:3	8F\	.	.	.	.	.	.	.	.
8FF/J	.	8FF\J	.	.	.	.	.	.	.	.
!	!	!	!	!	!	!	!LO:TX:t=P:problem=kreska taktowa pojedyncza	!	!	!
2BB-/	.	2BB-/	.	.	2b-\	-ta	2b-\	-ta	.	.
!	!	!	!	!	!LO:LB:g=original	!	!	!	!	!
=21||	=21||	=21||	=21||	=21||	=21||	=21||	=21||	=21||	=21||	=21||
*M3/4	*	*M3/4	*M3/4	*M3/4	*M3/4	*	*M3/4	*	*M3/4	*M3/4
!	!	!LO:TX:t=P:problem=mixed beam	!	!	!	!	!	!	!	!
!LO:TX:b:t=Gaude Virgo	!	!LO:TX:b:t=Gaude Virgo	!	!	!	!	!	!	!	!
!LO:TX:t=P:problem=oznaczenie metryczne 3	!	!LO:TX:t=P:problem=oznaczenie metryczne 3	!	!LO:TX:t=P:problem=oznaczenie metryczne 3	!LO:TX:t=P:problem=oznaczenie metryczne 3	!	!LO:TX:t=P:problem=oznaczenie metryczne 3	!	!	!LO:TX:t=P:problem=oznaczenie metryczne 3
4BB-/	.	8B-\L	2.r	2.r	(4b-\	Gau-	(4dd\	Gau-	2.r	2.r
.	.	8BB-\J	.	.	.	.	.	.	.	.
!	!	!LO:TX:t=P:problem=mixed beam	!	!	!	!	!	!	!	!
4FF/	.	8F\L	.	.	4a\)	.	4cc\)	.	.	.
.	.	8FF\J	.	.	.	.	.	.	.	.
!	!	!LO:TX:t=P:problem=mixed beam	!	!	!	!	!	!	!	!
4GG/	-	8G\L	.	.	4g/	-de	4b-\	-de	.	.
.	.	8GG\J	.	.	.	.	.	.	.	.
=22	=22	=22	=22	=22	=22	=22	=22	=22	=22	=22
!	!	!LO:TX:t=P:problem=dopisane litery w tt. 22-49	!	!	!	!	!	!	!	!
!	!	!LO:TX:b:t=C	!	!	!LO:TX:t=P:problem=♯ pod nutą	!	!	!	!	!
4D/	#	8D/L	2.r	2.r	(4f#X/	Vir-	(4a\	Vir-	2.r	2.r
*	*	*custos:G	*	*	*	*	*	*	*	*
!	!	!LO:TX:b:t=G	!	!	!	!	!	!	!	!
.	.	8DD/J	.	.	.	.	.	.	.	.
!	!	!LO:LB:g=original	!	!	!	!	!	!	!	!
!	!	!LO:TX:t=P:problem=mixed beam	!	!	!	!	!	!	!	!
4GG/	-	8G/L	.	.	4g/)	.	4b-\)	.	.	.
.	.	8GG/J	.	.	.	.	.	.	.	.
!	!	!LO:TX:t=P:problem=mixed beam	!	!	!	!	!	!	!	!
4FF/	.	8F/L	.	.	4a/	-go	4cc\	-go	.	.
.	.	8FF/J	.	.	.	.	.	.	.	.
=23	=23	=23	=23	=23	=23	=23	=23	=23	=23	=23
!	!	!LO:TX:t=P:problem=mixed beam	!	!	!	!	!	!	!	!
4BB-/	.	8BB-\L	2.r	2.r	4b-\	glo-	4dd\	glo-	2.r	2.r
.	.	8B-\J	.	.	.	.	.	.	.	.
4C/	-	4C/	.	.	(8cc\L	-rio-	(8ee-\L	-rio-	.	.
.	.	.	.	.	8dd\)	.	8ff\)	.	.	.
8D\L	-6	8D\L	.	.	(8cc\	-sa	(8ee-\	-sa	.	.
8E-\J	6 5	8E-\J	.	.	8b-\J)	.	8dd\J)	.	.	.
=24	=24	=24	=24	=24	=24	=24	=24	=24	=24	=24
!	!	!LO:TX:t=P:problem=mixed beam	!	!	!	!	!	!	!	!
4F\	.	8F\L	2.r	2.r	2a\	.	2cc\	o-	2.r	2.r
.	.	8FF\	.	.	.	.	.	.	.	.
4FF/	.	8F\	.	.	.	.	.	.	.	.
.	.	8FF\J	.	.	.	.	.	.	.	.
!	!	!LO:TX:t=P:problem=mixed beam	!	!	!LO:TX:t=P:problem=brak kreski taktowej	!	!LO:TX:t=P:problem=brak kreski taktowej	!	!	!
4BB-/	.	8BB-\L	.	.	4b-\	.	4b-\	-sa	.	.
.	.	8B-\J	.	.	.	.	.	.	.	.
=25	=25	=25	=25	=25	=25	=25	=25	=25	=25	=25
!	!	!LO:TX:t=P:problem=niejednoznaczny symbol pod nutą [obiegnik górny?]	!LO:TX:b:B:t=adagio	!LO:TX:b:B:t=adagio	!	!	!	!	!	!LO:TX:t=P:problem=brak kreski taktowej w tt. 25-28
4BB-/	.	4BB-/	4b-/	4dd\	2.r	.	2.r	.	4b-\	4dd\
!	!	!LO:TX:t=P:problem=niejednoznaczny symbol pod nutą [obiegnik górny?]	!	!	!	!	!	!	!	!
4FF/	.	4FF/	4a/	4cc\	.	.	.	.	4f/	4cc\
4GG/	3	4GG/	4g/	4b-/	.	.	.	.	4d/	4b-\
!LO:LB:g=original	!	!	!	!	!	!	!	!	!	!
=26	=26	=26	=26	=26	=26	=26	=26	=26	=26	=26
!	!	!	!LO:TX:t=P:problem=♯ nad nutą	!	!	!	!	!	!LO:SIC:s=4f#	!LO:SIC:s=4f#
4D\	#	4D/	4f#X/	4a/	2.r	.	2.r	.	4f/	4f/
4GG/	-	4GG/	4g/	4b-\	.	.	.	.	4d/	4b-\
4FF/	.	4FF/	4a/	4cc\	.	.	.	.	4f/	4cc\
=27	=27	=27	=27	=27	=27	=27	=27	=27	=27	=27
!	!	!	!LO:TX:t=P:problem=all\right&colon; global	!	!	!	!	!	!	!
4BB-/	.	4BB-/	4b-\	4dd\	2.r	.	2.r	.	4b-\	4dd\
4C/	-	4C/	8cc\L	8ee-\L	.	.	.	.	8cc\L	(8ee-\L
.	.	.	8dd\	8ff\	.	.	.	.	8dd\	8ff\J)
8D\L	-6	8D\L	8cc\	8ee-\	.	.	.	.	8cc\	8ee-\L
!	!	!	!	!	!	!	!	!	!LO:TX:t=P:problem=brak kreski taktowej w tt. 25-28	!
8E-\J	6 5	8E-\J	8b-\J	8dd\J	.	.	.	.	8b-\J	8dd\J
!	!	!	!	!LO:LB:g=original	!	!	!	!	!	!
=28	=28	=28	=28	=28	=28	=28	=28	=28	=28	=28
!	!	!LO:TX:t=P:problem=mixed beam	!	!	!LO:TX:t=P:problem=brak kreski taktowej	!	!LO:TX:t=P:problem=brak kreski taktowej	!	!	!
4F\	.	8F\L	2f/	2cc\	2.r	.	2.r	.	2f/	2cc\
.	.	8FF\J	.	.	.	.	.	.	.	.
!	!	!LO:TX:t=P:problem=mixed beam	!	!	!	!	!	!	!	!
!	!	!LO:LB:g=original	!	!	!	!	!	!	!	!
4FF/	.	8F\L	.	.	.	.	.	.	.	.
.	.	8FF\J	.	.	.	.	.	.	.	.
!	!	!LO:TX:t=P:problem=mixed beam	!	!	!	!	!	!	!	!
4BB-/	.	8B-\L	4d/	4b-/	.	.	.	.	4d/	4b-\
.	.	8BB-\J	.	.	.	.	.	.	.	.
=29	=29	=29	=29	=29	=29	=29	=29	=29	=29	=29
!	!	!LO:TX:b:t=C	!	!	!	!	!	!	!	!
!	!	!LO:TX:t=P:problem=mixed beam	!	!	!	!	!LO:TX:a:B:t=adagio	!	!	!
4BB-/	.	8B-\L	2.r	2.r	(4b-\	Su-	4dd\	Su-	2.r	2.r
!	!	!LO:TX:b:t=C	!	!	!	!	!	!	!	!
.	.	8BB-\J	.	.	.	.	.	.	.	.
!	!	!LO:TX:t=P:problem=mixed beam	!	!	!	!	!	!	!	!
4FF/	.	8F\L	.	.	4a\)	.	4cc\	.	.	.
.	.	8FF\J	.	.	.	.	.	.	.	.
!	!	!LO:TX:t=P:problem=mixed beam	!	!	!	!	!	!	!	!
4GG/	-	8G\L	.	.	4g/	-per	4b-\	-per	.	.
.	.	8GG\J	.	.	.	.	.	.	.	.
=30	=30	=30	=30	=30	=30	=30	=30	=30	=30	=30
!	!	!	!	!	!LO:TX:t=P:problem=♯ pod nutą	!	!	!	!	!
4D/	#	8D/L	2.r	2.r	4f#X/	om-	(4a\	om-	2.r	2.r
.	.	8DD/J	.	.	.	.	.	.	.	.
!	!	!LO:TX:t=P:problem=mixed beam	!	!	!	!	!	!	!	!
4GG/	-	8G\L	.	.	4g/	.	4b-\)	.	.	.
.	.	8GG\J	.	.	.	.	.	.	.	.
!	!	!LO:TX:t=P:problem=mixed beam	!	!	!	!	!	!	!	!
4FF/	.	8F\L	.	.	4a/	-nes	4cc\	-nes	.	.
.	.	8FF\J	.	.	.	.	.	.	.	.
!	!	!	!	!	!	!	!LO:LB:g=original	!	!	!
=31	=31	=31	=31	=31	=31	=31	=31	=31	=31	=31
4BB-/	.	4BB-/	2.r	2.r	4b-\	Spe-	4dd\	spe-	2.r	2.r
4C/	-	4C/	.	.	8cc\L	-ci-	(8ee-\L	-ci-	.	.
.	.	.	.	.	8dd\	.	8ff\	.	.	.
8D\L	-6	8D\L	.	.	8cc\	.	8ee-\	.	.	.
8E-\J	6 5	8E-\J	.	.	8b-\J	.	8dd\J)	.	.	.
=32	=32	=32	=32	=32	=32	=32	=32	=32	=32	=32
!	!	!LO:TX:t=P:problem=mixed beam	!	!	!	!	!	!	!	!
4F\	4:3	8F\L	2.r	2.r	2a\	-o-	2cc\	-o-	2.r	2.r
.	.	8FF\J	.	.	.	.	.	.	.	.
!	!	!LO:TX:t=P:problem=mixed beam	!	!	!	!	!	!	!	!
4FF/	.	8F\L	.	.	.	.	.	.	.	.
.	.	8FF\J	.	.	.	.	.	.	.	.
!	!	!	!	!	!	!	!LO:TX:t=P:problem=brak kreski taktowej	!	!	!
4BB-/	.	4BB-/	.	.	4b-\	-sa	4b-\	-sa	.	.
!	!	!LO:LB:g=original	!	!	!LO:LB:g=original	!	!	!	!	!
=33	=33	=33	=33	=33	=33	=33	=33	=33	=33	=33
!	!	!LO:TX:t=P:problem=niejednoznaczny symbol pod nutą [obiegnik górny?]	!	!	!	!	!	!	!	!
!	!	!LO:TX:t=P:problem=mixed beam	!	!	!	!	!	!	!	!
4BB-/	.	8B-\L	4b-/	4dd\	2.r	.	2.r	.	4b-\	4dd\
!	!	!LO:TX:t=P:problem=niejednoznaczny symbol pod nutą [obiegnik górny?]	!	!	!	!	!	!	!	!
.	.	8BB-\J	.	.	.	.	.	.	.	.
!	!	!LO:TX:t=P:problem=mixed beam	!	!	!	!	!	!	!	!
4FF/	.	8F\L	4a/	4cc\	.	.	.	.	4f/	4cc\
.	.	8FF\J	.	.	.	.	.	.	.	.
!	!	!LO:TX:t=P:problem=mixed beam	!	!	!	!	!	!	!	!
4GG/	-	8G\L	4g/	4b-/	.	.	.	.	4d/	4b-\
.	.	8GG\J	.	.	.	.	.	.	.	.
!LO:LB:g=original	!	!	!	!	!	!	!	!	!	!
=34	=34	=34	=34	=34	=34	=34	=34	=34	=34	=34
!	!	!	!	!	!	!	!	!	!LO:SIC:s=4f#	!
!	!	!	!LO:TX:t=P:problem=♯ nad nutą	!	!	!	!	!	!LO:TX:t=P:problem=brak kreski taktowej w tt. 25-28	!LO:SIC:s=4f#
4D/	#	8D/L	4f#X/	4a/	2.r	.	2.r	.	4f/	4f/
.	.	8DD/J	.	.	.	.	.	.	.	.
!	!	!LO:TX:t=P:problem=mixed beam	!	!	!	!	!	!	!	!
4GG/	-	8G\L	4g/	4b-/	.	.	.	.	4d/	4b-\
.	.	8GG\J	.	.	.	.	.	.	.	.
!	!	!LO:TX:t=P:problem=mixed beam	!	!	!	!	!	!	!	!
4FF/	.	8F\L	4a/	4cc\	.	.	.	.	4f/	4cc\
.	.	8FF\J	.	.	.	.	.	.	.	.
=35	=35	=35	=35	=35	=35	=35	=35	=35	=35	=35
4BB-/	.	4BB-/	4b-\	4dd\	2.r	.	2.r	.	4b-\	4dd\
4C/	-	4C/	8cc\L	8ee-\L	.	.	.	.	8cc\L	(8ee-\L
.	.	.	8dd\	8ff\	.	.	.	.	8dd\	8ff\)
8D\L	-6	8D\L	8cc\	8ee-\	.	.	.	.	8cc\	(8ee-\
!	!	!	!	!	!	!	!	!	!	!LO:TX:t=P:problem=brak kreski taktowej
8E-\J	6 5	8E-\J	8b-\J	8dd\J	.	.	.	.	8b-\J	8dd\J)
!	!	!	!LO:LB:g=original	!LO:LB:g=original	!	!	!	!	!	!
=36	=36	=36	=36	=36	=36	=36	=36	=36	=36	=36
!	!	!LO:TX:t=P:problem=mixed beam	!	!	!LO:TX:t=P:problem=brak kreski taktowej	!	!LO:TX:t=P:problem=brak kreski taktowej	!	!	!
4F\	.	8F\L	2f/	2cc\	2.r	.	2.r	.	2f/	2cc\
.	.	8FF\J	.	.	.	.	.	.	.	.
!	!	!LO:TX:t=P:problem=mixed beam	!	!	!	!	!	!	!	!
4FF/	4:3	8F\L	.	.	.	.	.	.	.	.
.	.	8FF\J	.	.	.	.	.	.	.	.
!	!	!LO:TX:t=P:problem=mixed beam	!	!	!	!	!	!	!	!LO:TX:b:t=Verte
4BB-/	.	8B-\L	4d/	4b-/	.	.	.	.	4d/	4b-\
.	.	8BB-\J	.	.	.	.	.	.	.	.
=37	=37	=37	=37	=37	=37	=37	=37	=37	=37	=37
!	!	!LO:TX:b:t=C	!LO:TX:a:t=3	!	!	!	!	!	!	!
2BB-/	.	2BB-/	2.r	2.r	4dd\	va-	4ff\	va-	2.r	2.r
.	.	.	.	.	4g/	-le	4b-\	-le	.	.
!LO:TX:t=P:problem=brak kreski taktowej	!	!LO:TX:b:t=C	!	!	!	!	!	!	!	!
4FF/	.	4FF/	.	.	4a/	o	4cc\	o	.	.
=38	=38	=38	=38	=38	=38	=38	=38	=38	=38	=38
4BB-/	.	4BB-/	2.r	2.r	4b-\	val-	4dd\	val-	2.r	2.r
!LO:TX:t=P:problem=brak kreski taktowej	!	!	!	!	!	!	!	!	!	!
2E-\	6 5	4C/	.	.	(8cc\L	-de	8ee-\L	-de	.	.
.	.	.	.	.	8dd\)	.	8ff\	.	.	.
.	.	8D\L	.	.	(8cc\	de-	8ee-\	de-	.	.
.	.	8E-\J	.	.	8b-\J)	.	8dd\J	.	.	.
=39	=39	=39	=39	=39	=39	=39	=39	=39	=39	=39
2FF/	4:3	2FF/	2.r	2.r	2a\	-co-	2cc\	-co-	2.r	2.r
!	!	!	!	!	!LO:SIC:s=-ra	!	!	!	!	!
!	!	!LO:LB:g=original	!	!	!LO:TX:t=P:problem=brak kreski taktowej	!	!LO:TX:t=P:problem=brak kreski taktowej	!	!	!
4BB-/	.	4BB-/	.	.	4b-\	-ro	4b-\	-ra	.	.
=40	=40	=40	=40	=40	=40	=40	=40	=40	=40	=40
!	!	!LO:TX:t=P:problem=niejednoznaczny symbol pod nutą [obiegnik górny?]	!	!	!	!	!	!	!	!LO:TX:t=P:problem=brak kreski taktowej w tt. 40-42
2BB-/	.	2BB-/	4dd\	4ff\	2.r	.	2.r	.	4dd\	4ff\
.	.	.	4g/	4b-\	.	.	.	.	4d/	4b-\
!LO:TX:t=P:problem=brak kreski taktowej	!	!LO:TX:t=P:problem=niejednoznaczny symbol pod nutą [obiegnik górny?]	!	!	!	!	!	!	!	!
4FF/	.	4FF/	4a/	4cc\	.	.	.	.	4f/	4cc\
=41	=41	=41	=41	=41	=41	=41	=41	=41	=41	=41
4BB-/	.	4BB-/	4b-\	4dd\	2.r	.	2.r	.	4b-\	4dd\
!LO:TX:t=P:problem=brak kreski taktowej	!	!	!	!	!	!	!	!	!	!
2E-\	6 5	4C/	8cc\L	8ee-\L	.	.	.	.	8cc\L	8ee-\L
.	.	.	8dd\	8ff\	.	.	.	.	8dd\	8ff\
.	.	8D/L	8cc\	8ee-\	.	.	.	.	8cc\	8ee-\
.	.	8E-/J	8b-\J	8dd\J	.	.	.	.	8b-\J	8dd\J
=42	=42	=42	=42	=42	=42	=42	=42	=42	=42	=42
!	!	!	!	!	!LO:TX:t=P:problem=brak kreski taktowej	!	!LO:TX:t=P:problem=brak kreski taktowej	!	!	!
2FF/	4:3	2FF/	2f/	2cc\	2.r	.	2.r	.	2f/	2cc\
4BB-/	.	4BB-/	4d/	4b-/	.	.	.	.	4d/	4b-\
=43	=43	=43	=43	=43	=43	=43	=43	=43	=43	=43
!	!	!LO:TX:b:t=C	!	!LO:TX:a:t=3	!	!	!	!	!	!
4GG/	-	4GG/	2.r	2.r	4g/	va-	4dd\	va-	2.r	2.r
!	!	!LO:TX:b:t=C	!	!	!	!	!	!	!	!
4GG/	#	4GG/	.	.	4g/	-le	4g/	-le	.	.
!	!	!	!	!	!	!	!LO:TX:t=P:problem=♯ pod nutą	!	!	!
4D/	.	4D/	.	.	4a/	o	4f#X/	o	.	.
!LO:LB:g=original	!	!	!	!	!	!	!	!	!	!
=44	=44	=44	=44	=44	=44	=44	=44	=44	=44	=44
4D/	#	4D\	2.r	2.r	4b-\	val-	4dd\	val-	2.r	2.r
4E-\	6	4E-\	.	.	4g\	-de	(8gg\L	-de	.	.
.	.	.	.	.	.	.	8dd\J)	.	.	.
!	!	!	!	!	!	!	!LO:TX:t=P:problem=mixed beam	!	!	!
8BB-/L	.	8BB-/L	.	.	4cc\	de-	(8ee-\L	de-	.	.
8C/J	6 5	8C/J	.	.	.	.	8g\J)	.	.	.
!	!	!	!	!	!	!	!LO:LB:g=original	!	!	!
=45	=45	=45	=45	=45	=45	=45	=45	=45	=45	=45
!	!	!	!	!	!	!	!LO:TX:t=P:problem=♯ pod nutą	!	!	!
2D/	#	2D/	2.r	2.r	2a\	-co-	2f#X/	-co-	2.r	2.r
!	!	!	!	!	!LO:TX:t=P:problem=brak kreski taktowej	!	!LO:TX:t=P:problem=brak kreski taktowej	!	!	!
4GG/	#	4GG/	.	.	4g/	-ra.	4g/	-ra	.	.
=46	=46	=46	=46	=46	=46	=46	=46	=46	=46	=46
!	!	!LO:TX:t=P:problem=niejednoznaczny symbol pod nutą [obiegnik górny?]	!	!	!	!	!	!	!	!
4GG/	.	4GG/	4g/	4dd\	2.r	.	2.r	.	4d/	4b-\
!	!	!LO:TX:t=P:problem=niejednoznaczny symbol pod nutą [obiegnik górny?]	!	!	!	!	!	!	!	!
4GG/	-	4GG/	4g/	4g/	.	.	.	.	4d/	4f/
!	!	!	!	!LO:TX:t=P:problem=♯ nad nutą	!	!	!	!	!	!LO:TX:t=P:problem=brak kreski taktowej
4D/	#	4D/	4a/	4f#X/	.	.	.	.	4d/	4f/
=47	=47	=47	=47	=47	=47	=47	=47	=47	=47	=47
4D/	#	4D/	4b-/	4dd\	2.r	.	2.r	.	4d/	4d/ 4f
!	!	!	!	!	!	!	!	!	!	!LO:TX:b:t=e
4E-\	6	4E-\	4g/	8gg\L	.	.	.	.	8d/L	8d/L 8f
!	!	!	!	!	!	!	!	!	!	!LO:TX:b:t=e
.	.	.	.	8dd\	.	.	.	.	8d/J	8d/ 8f
8BB-/L	.	8BB-/L	4cc\	8ee-\	.	.	.	.	8d/L	8d/
8C/J	6 5	8C/J	.	8g\J	.	.	.	.	8d/J	8d/J 8g
=48	=48	=48	=48	=48	=48	=48	=48	=48	=48	=48
!	!	!	!	!LO:TX:t=P:problem=♯ nad nutą	!	!	!LO:TX:t=P:problem=brak kreski taktowej	!	!	!LO:SIC:n=1:s=2f#
2D/	#	2D/	2a/	2f#X/	2.r	.	2.r	.	2d/	2d/ 2f
!	!	!	!	!	!	!	!	!	!LO:TX:b:t=Verte	!
4GG/	#	4GG/	4g/	4g/	.	.	.	.	4d/	4d/
!	!	!LO:LB:g=original	!LO:LB:g=original	!LO:LB:g=original	!LO:LB:g=original	!	!	!	!	!
=49||	=49||	=49||	=49||	=49||	=49||	=49||	=49||	=49||	=49||	=49||
*M2/2	*	*M2/2	*M2/2	*M2/2	*M2/2	*	*M2/2	*	*M2/2	*M2/2
*met(c|)	*	*met(c|)	*met(c|)	*met(c|)	*met(c|)	*	*met(c|)	*	*met(c|)	*met(c|)
!	!	!LO:TX:b:t=C	!	!	!	!	!	!	!	!
!LO:TX:b:t=Et pronobis	!	!LO:TX:t=P:problem=mixed beam	!LO:TX:a:B:t=Allegro	!LO:TX:a:B:t=Allegro	!	!	!	!	!	!
4BB-/	.	8B-\L	1r	1r	1r	.	8b-\	Et	1r	1r
!	!	!LO:TX:b:t=C	!	!	!	!	!	!	!	!
.	.	8BB-\	.	.	.	.	8cc\	pro	.	.
4r	.	8B-\	.	.	.	.	8dd\	no-	.	.
.	.	8BB-\J	.	.	.	.	8b-\	-bis	.	.
!	!	!LO:TX:t=P:problem=mixed beam	!	!	!	!	!	!	!	!
4FF/	.	8F\L	.	.	.	.	4cc\	Chri-	.	.
.	.	8FF\	.	.	.	.	.	.	.	.
4r	.	8F\	.	.	.	.	8f/	-ſt(um)	.	.
.	.	8FF\J	.	.	.	.	8ff\	ex-	.	.
=50	=50	=50	=50	=50	=50	=50	=50	=50	=50	=50
4BB-/	.	4BB-/	1r	1r	1r	.	4dd\	-o-	1r	1r
4r	.	4r	.	.	.	.	8cc\	-ra	.	.
.	.	.	.	.	.	.	8b-\	ex-	.	.
4F\	.	4F\	.	.	.	.	4cc\	-o-	.	.
4r	.	4r	.	.	.	.	4f/	-ra	.	.
=51	=51	=51	=51	=51	=51	=51	=51	=51	=51	=51
!	!	!LO:TX:t=P:problem=niejednoznaczny symbol pod nutą [obiegnik górny?]	!	!	!	!	!	!	!	!
!	!	!LO:TX:t=P:problem=mixed beam	!	!	!	!	!	!	!	!LO:TX:t=P:problem=brak kreski taktowej w tt. 51-52
4BB-/	.	8B-\L	8d/L	8b-/L	1r	.	1r	.	8d/L	8b-\L
!	!	!LO:TX:t=P:problem=niejednoznaczny symbol pod nutą [obiegnik górny?]	!	!	!	!	!	!	!	!
.	.	8BB-\	8f/	8cc/	.	.	.	.	8f/J	8cc\
4r	.	8B-\	8b-/	8dd/	.	.	.	.	8b-\L	8dd\
.	.	8BB-\J	8d/J	8b-/J	.	.	.	.	8f\J	8b-\J
!	!	!LO:TX:t=P:problem=mixed beam	!	!	!	!	!	!	!	!
4FF/	.	8F\L	4a/	4cc\	.	.	.	.	4f/	4cc\
.	.	8FF\	.	.	.	.	.	.	.	.
!	!	!	!	!LO:TX:t=P:problem=mixed beam	!	!	!	!	!LO:TX:t=P:problem=mixed beam	!LO:TX:t=P:problem=mixed beam
4r	.	8F\	8a/L	8f\L	.	.	.	.	8f\L	8f\L
.	.	8FF\J	8dd/J	8ff\J	.	.	.	.	8dd\J	8ff\J
=52	=52	=52	=52	=52	=52	=52	=52	=52	=52	=52
!	!	!	!	!	!LO:TX:t=P:problem=brak kreski taktowej	!	!	!	!	!
4B-\	.	4B-\	4b-/	4dd\	1r	.	1r	.	4b-\	4dd\
4r	.	4r	8a/L	8cc\L	.	.	.	.	8f/L	8cc\L
.	.	.	8d/J	8b-\J	.	.	.	.	8d/J	8b-\J
4F\	.	4F\	4f/	4cc\	.	.	.	.	4f/	4cc\
4r	.	4r	4f/	4f/	.	.	.	.	4f/	4f/
=53	=53	=53	=53	=53	=53	=53	=53	=53	=53	=53
!	!	!	!LO:TX:a:t=3	!LO:TX:a:t=3	!	!	!	!	!	!
2BB-/	.	8BB-/L	1r	1r	8d/	et	8b-\	et	1r	1r
.	.	8C/	.	.	8d/	pro	8b-\	pro	.	.
.	.	8D/	.	.	8d/	no-	8b-\	no-	.	.
*	*	*custos:E-	*	*	*	*	*	*	*	*
.	.	8BB-/J	.	.	8d/	-bis	8b-\	-bis	.	.
!	!	!LO:LB:g=original	!	!	!	!	!LO:LB:g=original	!	!	!
8E-\L	.	8E-\L	.	.	4e-/	Chri-	4g/	Chri-	.	.
8E-\	.	8E-\	.	.	.	.	.	.	.	.
8E-\	.	8E-\	.	.	4e-/	-ſt(um)	4g/	-ſtum	.	.
8E-\J	.	8E-\J	.	.	.	.	.	.	.	.
=54	=54	=54	=54	=54	=54	=54	=54	=54	=54	=54
*	*	*	*	*	*	*ij	*	*	*	*
2C/	-	8C/L	1r	1r	8e-/	et	8cc\	[et	1r	1r
.	.	8D/	.	.	8e-/	pro	8cc\	pro	.	.
.	.	8E-/	.	.	8e-/	no-	8cc\	no-	.	.
.	.	8C/J	.	.	8e-/	-bis	8cc\	-bis	.	.
8F\L	.	8F\L	.	.	4f/	Chri-	4a\	Chri-	.	.
8F\	.	8F\	.	.	.	.	.	.	.	.
8F\	.	8F\	.	.	4f/	-ſtum	4a\	-ſtum]	.	.
8F\J	.	8F\J	.	.	.	.	.	.	.	.
!LO:LB:g=original	!	!	!	!	!	!	!	!	!	!
*	*	*	*	*	*	*Xij	*	*	*	*
=55	=55	=55	=55	=55	=55	=55	=55	=55	=55	=55
4D\	-6	4D\	1r	1r	4g/	Chri-	4b-\	Chri-	1r	1r
8E-\L	6 5	8E-\L	.	.	(8a\	-ſtum	8cc\	-ſtum	.	.
8C\J	-	8C\J	.	.	8b-\)	ex-	8dd\	ex-	.	.
!LO:TX:t=P:problem=mixed beam	!	!LO:TX:t=P:problem=mixed beam	!	!	!	!	!	!	!	!
8F\L	4:3	8F\L	.	.	4a\	-o-	4cc\	-o-	.	.
8FF\J	.	8FF\J	.	.	.	.	.	.	.	.
4BB-/	.	4BB-/	.	.	4b-\	-ra.	4b-\	-ra.	.	.
=56	=56	=56	=56	=56	=56	=56	=56	=56	=56	=56
2BB-/	.	2BB-/	8d/L	8b-\L	1r	.	1r	.	8d/L	8b-\L
.	.	.	8d/	8b-\	.	.	.	.	8d/	8b-\
.	.	.	8d/	8b-\	.	.	.	.	8d/	8b-\
.	.	.	8d/J	8b-\J	.	.	.	.	8d/J	8b-\J
8E-\L	.	8E-\L	4e-/	4g/	.	.	.	.	4b-\	4b-\
8E-\	.	8E-\	.	.	.	.	.	.	.	.
8E-\	.	8E-\	4e-/	4g/	.	.	.	.	4b-\	4b-\
8E-\J	.	8E-\J	.	.	.	.	.	.	.	.
=57	=57	=57	=57	=57	=57	=57	=57	=57	=57	=57
2C/	-	8C/L	8e-/L	8cc\L	1r	.	1r	.	8cc\L	8cc\L
.	.	8D/	8e-/	8cc\	.	.	.	.	8cc\	8cc\
.	.	8E-/	8e-/	8cc\	.	.	.	.	8cc\	8cc\
.	.	8C/J	8e-/J	8cc\J	.	.	.	.	8cc\J	8cc\J
8F\L	.	8F\L	4f/	4a/	.	.	.	.	4f/	4f/
8F\	.	8F\	.	.	.	.	.	.	.	.
!	!	!	!	!	!	!	!	!	!	!LO:TX:t=P:problem=brak kreski taktowej
8F\	.	8F\	4f/	4a/	.	.	.	.	4f/	4f/
8F\J	.	8F\J	.	.	.	.	.	.	.	.
!	!	!	!LO:LB:g=original	!LO:LB:g=original	!	!	!	!	!	!
=58	=58	=58	=58	=58	=58	=58	=58	=58	=58	=58
!	!	!	!	!	!LO:TX:b:t=Scripſit Fr. I. A. A. A. M.\nA(n)no D(omi)ni 1714 Die 5ta Mart.	!	!LO:TX:a:t=Ad M. D. G.	!	!	!
!	!	!	!	!	!LO:TX:b:t=In Honorem Sactae Scholaſticae	!	!LO:TX:b:t=Scripſit Fr. I. A. A A. M.\nAnno 1714 Die 5ta Mart	!	!	!
!	!	!	!	!	!LO:TX:a:t=Ad M. D. G.	!	!LO:TX:b:t=In Honorem Sanctae Scholaſticae.	!	!	!
4D\	-6	4D\	4d/	4b-\	1r	.	1r	.	4d/	4b-\
8E-\L	6 5	8E-\L	8f/L	8cc\L	.	.	.	.	8f/L	8cc\L
8C\J	.	8C\J	8b-/J	8dd\J	.	.	.	.	8b-/J	8dd\J
!LO:TX:t=P:problem=mixed beam	!	!LO:TX:t=P:problem=mixed beam	!	!	!	!	!	!	!	!
8F\L	4:3	8F\L	4f/	4cc\	.	.	.	.	4f/	4cc\
8FF\J	.	8FF\J	.	.	.	.	.	.	.	.
!	!	!LO:TX:b:t=Finis Coronat opus.	!LO:TX:b:t=A M D G B M V H	!LO:TX:b:t=A M D G B M V H	!	!	!	!	!	!
4BB-/	.	4BB-/	4d/	4b-/	.	.	.	.	4d/	4b-\
==	==	==	==	==	==	==	==	==	==	==
*-	*-	*-	*-	*-	*-	*-	*-	*-	*-	*-
!!!system-decoration: [(s1,s2)][(s3,s4)][(s5,s6,s7)][(s8)]
!!!ENC: Andrzej Kubiczek
!!!END: 2020-11-15
!!!ENC: Jan Barakat
!!!END: 2022-01-26
